assets/sonr-icons/link-broken.svg

<svg xmlns="http://www.w3.org/2000/svg" width="24" height="24" fill="none" viewBox="0 0 24 24"><path fill="#000" d="M10.0799 2.4C10.0799 1.86981 9.65014 1.44 9.11994 1.44 8.58975 1.44 8.15994 1.86981 8.15994 2.4V4.32C8.15994 4.8502 8.58975 5.28 9.11994 5.28 9.65014 5.28 10.0799 4.8502 10.0799 4.32V2.4ZM20.1458 3.85418C18.2709 1.97928 15.232 1.97928 13.3571 3.85418L11.3211 5.89018C10.9462 6.26508 10.9462 6.87292 11.3211 7.24782 11.696 7.62273 12.3039 7.62273 12.6788 7.24782L14.7148 5.21182C15.8399 4.08673 17.663 4.08673 18.7881 5.21182 19.9132 6.33692 19.9132 8.16008 18.7881 9.28518L16.7521 11.3212C16.3772 11.6961 16.3772 12.3039 16.7521 12.6788 17.127 13.0537 17.7349 13.0537 18.1098 12.6788L20.1458 10.6428C22.0207 8.76792 22.0207 5.72908 20.1458 3.85418ZM4.51876 3.16118C4.14386 2.78628 3.53602 2.78628 3.16112 3.16118 2.78622 3.53608 2.78622 4.14392 3.16112 4.51882L4.51912 5.87682C4.89402 6.25173 5.50186 6.25173 5.87676 5.87682 6.25167 5.50192 6.25167 4.89408 5.87676 4.51918L4.51876 3.16118ZM2.39994 8.16C1.86975 8.16 1.43994 8.58981 1.43994 9.12 1.43994 9.6502 1.86975 10.08 2.39994 10.08H4.31994C4.85013 10.08 5.27994 9.6502 5.27994 9.12 5.27994 8.58981 4.85013 8.16 4.31994 8.16H2.39994ZM7.24776 12.6788C7.62267 12.3039 7.62267 11.6961 7.24776 11.3212 6.87286 10.9463 6.26502 10.9463 5.89012 11.3212L3.85412 13.3572C1.97922 15.2321 1.97922 18.2709 3.85412 20.1458 5.72902 22.0207 8.76786 22.0207 10.6428 20.1458L12.6788 18.1098C13.0537 17.7349 13.0537 17.1271 12.6788 16.7522 12.3039 16.3773 11.696 16.3773 11.3211 16.7522L9.28512 18.7882C8.16002 19.9133 6.33686 19.9133 5.21176 18.7882 4.08667 17.6631 4.08667 15.8399 5.21176 14.7148L7.24776 12.6788ZM19.6799 13.92C19.1497 13.92 18.7199 14.3498 18.7199 14.88 18.7199 15.4102 19.1497 15.84 19.6799 15.84H21.5999C22.1301 15.84 22.5599 15.4102 22.5599 14.88 22.5599 14.3498 22.1301 13.92 21.5999 13.92H19.6799ZM19.4808 18.1232C19.1059 17.7483 18.498 17.7483 18.1231 18.1232 17.7482 18.4981 17.7482 19.1059 18.1231 19.4808L19.4811 20.8388C19.856 21.2137 20.4639 21.2137 20.8388 20.8388 21.2137 20.4639 21.2137 19.8561 20.8388 19.4812L19.4808 18.1232ZM15.8399 19.68C15.8399 19.1498 15.4101 18.72 14.8799 18.72 14.3497 18.72 13.9199 19.1498 13.9199 19.68V21.6C13.9199 22.1302 14.3497 22.56 14.8799 22.56 15.4101 22.56 15.8399 22.1302 15.8399 21.6V19.68Z"/></svg>

<svg xmlns="http://www.w3.org/2000/svg" width="24" height="24" fill="none"><path fill="currentColor" d="M10.08 2.4a.96.96 0 1 0-1.92 0v1.92a.96.96 0 1 0 1.92 0zm10.066 1.454a4.8 4.8 0 0 0-6.789 0L11.321 5.89a.96.96 0 1 0 1.358 1.358l2.036-2.036a2.88 2.88 0 1 1 4.073 4.073l-2.036 2.036a.96.96 0 1 0 1.358 1.358l2.036-2.036a4.8 4.8 0 0 0 0-6.789M4.519 3.161A.96.96 0 0 0 3.16 4.52L4.52 5.877a.96.96 0 1 0 1.358-1.358zM2.399 8.16a.96.96 0 0 0 0 1.92h1.92a.96.96 0 1 0 0-1.92zm4.849 4.519A.96.96 0 1 0 5.89 11.32l-2.036 2.036a4.8 4.8 0 1 0 6.789 6.789l2.036-2.036a.96.96 0 1 0-1.358-1.358l-2.036 2.036a2.88 2.88 0 1 1-4.073-4.073zM19.68 13.92a.96.96 0 1 0 0 1.92h1.92a.96.96 0 1 0 0-1.92zm-.2 4.203a.96.96 0 0 0-1.357 1.358l1.358 1.358a.96.96 0 0 0 1.358-1.358zm-3.64 1.557a.96.96 0 1 0-1.92 0v1.92a.96.96 0 1 0 1.92 0z"/></svg>
